src/assets/stars.svg

<svg width="20" height="20" viewBox="0 0 20 20" fill="none" xmlns="http://www.w3.org/2000/svg">
<path d="M9.9996 15.2167L4.1221 18.5067L5.4346 11.9L0.48877 7.32669L7.17794 6.53335L9.9996 0.416687L12.8213 6.53335L19.5104 7.32669L14.5646 11.9L15.8771 18.5067L9.9996 15.2167Z" fill="#F66B0E"/>
<path fill-rule="evenodd" clip-rule="evenodd" d="M8.44375 1.02947C9.03186 -0.343159 10.9681 -0.343157 11.5563 1.02947L13.3199 5.14582C13.4426 5.43209 13.711 5.62813 14.0198 5.65692L18.4598 6.07082C19.9403 6.20884 20.5387 8.05978 19.4216 9.04613L16.0716 12.0041C15.8387 12.2098 15.7361 12.527 15.8043 12.831L16.7847 17.2032C17.1116 18.6611 15.5451 19.8051 14.2666 19.042L10.4326 16.7538C10.1659 16.5947 9.83409 16.5947 9.56745 16.7538L5.73339 19.042C4.45489 19.8051 2.8884 18.6611 3.21532 17.2032L4.1957 12.831C4.26389 12.527 4.16134 12.2098 3.92837 12.0041L0.578411 9.04613C-0.538662 8.05978 0.0596885 6.20884 1.54023 6.07082L5.9802 5.65692C6.28897 5.62813 6.55743 5.43209 6.68008 5.14582L8.44375 1.02947ZM10 1.70309L8.23634 5.81944C7.86838 6.67825 7.063 7.26638 6.13668 7.35273L1.69671 7.76663L5.04667 10.7246C5.74559 11.3417 6.05321 12.2933 5.84867 13.2055L4.86829 17.5777L8.70234 15.2894C9.50225 14.812 10.4977 14.812 11.2977 15.2894L15.1317 17.5777L14.1513 13.2055C13.9468 12.2933 14.2544 11.3417 14.9533 10.7246L18.3033 7.76663L13.8633 7.35273C12.937 7.26638 12.1316 6.67825 11.7637 5.81944L10 1.70309Z" fill="#F66B0E"/>
</svg>

<svg width="20" height="20" fill="none" xmlns="http://www.w3.org/2000/svg"><path d="m10 15.217-5.878 3.29L5.435 11.9.489 7.327l6.689-.794L10 .417l2.821 6.116 6.69.794-4.946 4.573 1.312 6.607L10 15.217Z" fill="#F66B0E"/><path fill-rule="evenodd" clip-rule="evenodd" d="M8.444 1.03c.588-1.373 2.524-1.373 3.112 0l1.764 4.116a.848.848 0 0 0 .7.51l4.44.415c1.48.138 2.079 1.989.962 2.975l-3.35 2.958a.854.854 0 0 0-.268.827l.98 4.372c.328 1.458-1.239 2.602-2.517 1.839l-3.834-2.288a.844.844 0 0 0-.866 0l-3.834 2.288c-1.278.763-2.845-.38-2.518-1.839l.98-4.372a.854.854 0 0 0-.267-.827L.578 9.046C-.539 8.06.06 6.21 1.54 6.071l4.44-.414a.848.848 0 0 0 .7-.511l1.764-4.117ZM10 1.702 8.236 5.82a2.543 2.543 0 0 1-2.1 1.534l-4.44.414 3.35 2.958a2.562 2.562 0 0 1 .803 2.48l-.98 4.373 3.833-2.289a2.53 2.53 0 0 1 2.596 0l3.834 2.289-.98-4.372a2.563 2.563 0 0 1 .801-2.481l3.35-2.958-4.44-.414a2.543 2.543 0 0 1-2.1-1.534L10 1.703Z" fill="#F66B0E"/></svg>
